X:1
T:Not For Joe
C:Trad.
M:C
L:1/4
K:G Major
P:A
B B G B | c c A c | B B G B | A F D2 | B B G B | c c A c |\
B/2B/2B/2B/2 A/2A/2 A | G B G2 "B"|| d g d g | f e f e | d g d g |\
f g a2 | d g d g | f e f e | d2 b>a | g f g2 |]
